assets/icons/bag_light.svg

<?xml version="1.0" encoding="utf-8"?><!-- Uploaded to: SVG Repo, www.svgrepo.com, Generator: SVG Repo Mixer Tools -->
<svg width="800px" height="800px" viewBox="0 0 24 24" fill="none" xmlns="http://www.w3.org/2000/svg">
<path d="M3.74181 20.5545C4.94143 22 7.17414 22 11.6395 22H12.3607C16.8261 22 19.0589 22 20.2585 20.5545M3.74181 20.5545C2.54219 19.1091 2.95365 16.9146 3.77657 12.5257C4.36179 9.40452 4.65441 7.84393 5.7653 6.92196M3.74181 20.5545C3.74181 20.5545 3.74181 20.5545 3.74181 20.5545ZM20.2585 20.5545C21.4581 19.1091 21.0466 16.9146 20.2237 12.5257C19.6385 9.40452 19.3459 7.84393 18.235 6.92196M20.2585 20.5545C20.2585 20.5545 20.2585 20.5545 20.2585 20.5545ZM18.235 6.92196C17.1241 6 15.5363 6 12.3607 6H11.6395C8.46398 6 6.8762 6 5.7653 6.92196M18.235 6.92196C18.235 6.92196 18.235 6.92196 18.235 6.92196ZM5.7653 6.92196C5.7653 6.92196 5.7653 6.92196 5.7653 6.92196Z" stroke="#1C274C" stroke-width="1.5"/>
<path d="M9 6V5C9 3.34315 10.3431 2 12 2C13.6569 2 15 3.34315 15 5V6" stroke="#1C274C" stroke-width="1.5" stroke-linecap="round"/>
</svg>

<svg xmlns="http://www.w3.org/2000/svg" width="800" height="800" fill="none" viewBox="0 0 24 24"><path stroke="#1c274c" stroke-width="1.5" d="M3.742 20.555C4.942 22 7.174 22 11.64 22h.72c4.466 0 6.699 0 7.899-1.445m-16.517 0c-1.2-1.446-.788-3.64.035-8.03.585-3.12.877-4.681 1.988-5.603M3.742 20.555Zm16.517 0c1.2-1.446.788-3.64-.035-8.03-.585-3.12-.878-4.681-1.989-5.603m2.024 13.633ZM18.235 6.922C17.125 6 15.536 6 12.361 6h-.722c-3.175 0-4.763 0-5.874.922m12.47 0Zm-12.47 0Z"/><path stroke="#1c274c" stroke-linecap="round" stroke-width="1.5" d="M9 6V5a3 3 0 1 1 6 0v1"/></svg>
